X:1
T:Deptford, 76.76 D
T:Deptford, 76.76 D
T:Charles Bentley, 1898
T:Public Domain Courtesy of the Cyber Hymnal™
C:Charles Bentley, 1898
Z:Public Domain
Z:Courtesy of the Cyber Hymnal™
%%score ( 1 2 ) 3
L:1/8
Q:1/4=113
M:4/4
K:Bb
V:1 treble 
V:2 treble 
V:3 bass 
V:1
 [DF]2 | [DF]2 [DB]2 [DA]2 [DG]2 | [DG]4 [DF]2 [DB]2 | [EA]2 [EB]2 [CE]2 [EG]2 | [DF]6 [DF]2 | %5
 [DF]2 [DB]2 [DA]2 [DG]2 | [CF]4 [Fc]2 [Fc]2 | [=Ec]2 [EG]2 [EA]2 [EG]2 | F6 [Fe]2 | %9
 [Fd]2 [Fd]2 [Fe]2 [CF]2 | [B,D]2 [DF]4 [DB]2 | [Ec]2 [Ec]2 [EB]2 [Ec]2 | [Dd]6 [DF]2 | %13
 [EG]2 [EG]2 [EB]2 [EG]2 | [DG]2 [DF]4 [DB]2 | [Ec]2 [Ed]2 [Ee]2 [EA]2 | [DB]6 |] %17
V:2
 x2 | x8 | x8 | x8 | x8 | x8 | x8 | x8 | F6 x2 | x8 | x8 | x8 | x8 | x8 | x8 | x8 | x6 |] %17
V:3
 [B,,B,]2 | [B,,B,]2 [B,,B,]2 [B,,B,]2 [B,,B,]2 | [B,,B,]4 [B,,B,]2 [B,,B,]2 | %3
 [F,C]2 [F,A,]2 [F,A,]2 [F,A,]2 | [B,,B,]6 [B,,B,]2 | [B,,B,]2 [B,,B,]2 [B,,B,]2 [B,,B,]2 | %6
 [C,A,]4 [C,A,]2 [C,A,]2 | [B,,B,]2 [B,,B,]2 [B,,B,]2 [B,,B,]2 | [F,A,]6 [F,A,]2 | %9
 [F,A,]2 [F,A,]2 [F,A,]2 [F,A,]2 | [B,,F,]2 [B,,B,]4 [F,B,]2 | [F,A,]2 [F,A,]2 [F,A,]2 [F,A,]2 | %12
 [B,,B,]6 [B,,B,]2 | [E,B,]2 [E,B,]2 [G,B,]2 [E,B,]2 | [B,,B,]2 [B,,B,]4 [B,,B,]2 | %15
 [E,G,]2 [E,G,]2 [F,A,]2 [F,C]2 | [B,,B,]6 |] %17

